!!!COM:	Bach, Johann Sebastian
!!!CDT:	1685/02/21/-1750/07/28/
!!!OTL@@DE:	Herr Jesu Christ, mein's Lebens Licht
!!!SCT:	BWV 335
!!!PC#:	295
!!!AGN:	chorale
**kern	**kern	**kern	**kern
*ICvox	*ICvox	*ICvox	*ICvox
*Ibass	*Itenor	*Ialto	*Isoprn
*I"Bass	*I"Tenor	*I"Alto	*I"Soprano
*clefF4	*clefGv2	*clefG2	*clefG2
*k[f#]	*k[f#]	*k[f#]	*k[f#]
*e:	*e:	*e:	*e:
*M4/4	*M4/4	*M4/4	*M4/4
*met(c)	*met(c)	*met(c)	*met(c)
*MM100	*MM100	*MM100	*MM100
4BB	4F#	4d#	4b
=1	=1	=1	=1
4E	4G	4e	4b
4c	8AL	4e	4a
.	8GJ	.	.
4D#	4F#	4f#	4b
4E	4B	4e	4g
=2	=2	=2	=2
4AA	4c	4e	8f#L
.	.	.	16gL
.	.	.	16aJJ
4BB	8BL	4d#	4f#
.	8AJ	.	.
4E;	4G;	4B;	4e;
4E	8GL	4B	8eL
.	8AJ	.	8f#J
=3	=3	=3	=3
4E	4B	4e	4g
4F#	4A	4dnX	4a
4G	4G	4d	4b
8DL	4F#	8dL	4a
8C#J	.	8eJ	.
=4	=4	=4	=4
4BB	4.B	4f#	4dd
4F#	.	8f#L	4cc#
.	8A#	8eJ	.
4BB;	4F#;	4d;	4b;
8EL	4G	4e	4b
8DJ	.	.	.
=5	=5	=5	=5
4C#	4A	4e	4ee
4D	8AL	4d	4ff#
.	8BJ	.	.
4A	4c#X	4e	4ee
4G#	4d	4e#	4b
=6	=6	=6	=6
8AL	4c#	4f#	4cc#
8BJ	.	.	.
4c#	8G#L	8f#L	4b
.	8c#J	8e#J	.
4F#;	4c#;	4f#;	4a;
4D	4d	8f#L	8aL
.	.	8g#J	8bJ
=7	=7	=7	=7
4A	4enX	4a	4cc#
8G#L	4f#	4a	4dd#
8F#J	.	.	.
8G#L	8eL	8bL	4ee
8A#J	8c#J	8cc#J	.
4B	8dL	8cc#L	4dd
.	8f#J	8bJ	.
=8	=8	=8	=8
4E	8gnXL	8bL	8cc#L
.	8c#J	16a#L	16ddL
.	.	16g#JJ	16eeJJ
4F#	8f#L	4a#	4cc#
.	8eJ	.	.
4BB;	4d#;	4f#;	4b;
==	==	==	==
*-	*-	*-	*-
!!!hum2abc: -Q ''
!!!title: @{PC#}. @{OTL@@DE}
!!!YOR1: 371 vierstimmige Choralges&auml;nge von Johann Sebastian Bach, 
!!!YOR2: 4th ed. by Alfred D&ouml;rffel (Leipzig: Breitkopf und H&auml;rtel, 
!!!YOR2: c.1875). 178 pp. Plate "V.A.10".  reprint: J.S. Bach, 371 Four-Part 
!!!YOR4: Chorales (New York: Associated Music Publishers, Inc., c.1940).
!!!SMS: B&H, 4th ed, Alfred D&ouml;rffel, c.1875, plate V.A.10
!!!EED:  Craig Stuart Sapp
!!!EEV:  2009/05/22
